resources/haticons/SVG/view_quilt.svg

<!-- Generated by IcoMoon.io -->
<svg version="1.1" xmlns="http://www.w3.org/2000/svg" width="24" height="24" viewBox="0 0 24 24">
<title>view_quilt</title>
<path d="M9.984 5.016h11.016v6h-11.016v-6zM15.984 18v-6h5.016v6h-5.016zM3.984 18v-12.984h5.016v12.984h-5.016zM9.984 18v-6h5.016v6h-5.016z"></path>
</svg>

<svg xmlns="http://www.w3.org/2000/svg" width="24" height="24"><path d="M9.984 5.016H21v6H9.984v-6zm6 12.984v-6H21v6h-5.016zm-12 0V5.016H9V18H3.984zm6 0v-6H15v6H9.984z"/></svg>
